X: 28054
T: Mr And Mrs MacLean Of Snaigow
R: waltz
M: 3/4
K: Dmajor
EF|:"D" D4 FG|"F#m/C#"A4 ed|"G"B4 AF|"A" E4 EF|
"D"D2 F3 G|"F#m/C#" A4 gf|"G"e3 d B2|"A"A4 A/B/c|
"D"d2 A3 G|"F#m/C#" F3 G A2|"G" B3 G FD|"A" E4 AF|
"D"D2 F3 A|"G"B2 e3 c|"A" A6|1 A4 EF:|2 A4 fg ]|
"D" a3 g gf|"A" e4 ef|"G"g2 B3 d|"A" c4 fg|
"D"a2 f2 d2|"G" G4 AB|"A" A6|A4 fg|
"D"a3 g gf|"A" e4 ef|"G" g2 B3 d|"A" cB AG FE|
"D"D2 F3 A|"G" B2 e3 c|"A"(A6|A6)||

